X: 100042
M: 6/8
L: 1/8
K: G
uD |\
{d}cBc (a2c) | {c}BAB (g2B) | Aed cBA | G3- G2 ||
uD |\
{a}gfg (.e'2.c') | {c'}bab (d'2.b) | ae'd' c'ba | g3- g2 "^D.C."||
K: F
uF |\
(._E2.c) {d}c_Bc | (.A2.f) {g}fef | dba gfe | d3 (c2B) |\


